trumpet: (tempo 100)
o3
r1

g4 g4 g4 d+8. a+16 g4 d+8. a+16 g4 r4>d4 d4 d4 d+8.<a+16 f+4 d+8. a+16 g4 r4 

o5 g4 < g8 r16 g16 >g4 f+8 r16 f16 e16 d+16 e16 r8. <g+16> r16 c+4 c8 r16 <b16 a+16 a16 a+16 r8. d+16 r16 f+8. r16 d+8. f+16 a+8. r16 g8. a+16 >d4.

o5 g4 < g8 r16 g16 >g4 f+8 r16 f16 e16 d+16 e16 r8. <g+16> r16 c+4 c8 r16 <b16 a+16 a16 a+16 r8. d+16 r16 f+8. r16 d+8. a+16 g8. r16 d+8. a+16 g4.

r1

